X: 36487
T: Separation Of Soul And Body
R: reel
M: 4/4
K: Gminor
d2 g2 gfga|b2 ag g2 fg|b2 ag f2 dc|cdfg b3 a|
g2 gf d2 cB|Bcde f2 ag|fdcB A2 GF|G2 g2 g4||
D2 G2 GFGA|B2 AG G2 FG|Bcde fd g2|g6 d2|
B2 AG G2 AB|cAGF F2 fe|fdcA GFDF|G2 A2 G4||

